!!!!SEGMENT: pl-lzu--m-15111--001-015_noskowski-zygmunt--spiewnik-dla-dzieci-op-34-15-wierzba.krn
!!!cenid: 18xx:4712
!!!COM: Noskowski, Zygmunt
!!!COM-rismID: pe106604
!!!CDT: 1846/05/02-1909/07/23
!!!CNT: Polish
!!!GTL: Śpiewnik dla dzieci, op. 34
!!!OTL: 15. Wierzba
!!!OMV: 015
!!!PDT: 1890
!!!AGN: Secular; Song; Children
!!!YEC: Copyright 2022 Narodowy Instytut Fryderyka Chopina (https://polishscores.org)
!!!YEM: License CC-BY-4.0 (https://creativecommons.org/licenses/by/4.0)
!!!SMS-siglum: PL-LŹu
!!!SMS-shelfmark: M 15111
!!!SMS-variant:
!!!SMS-altvar:
!!!SMS-shelfwork: 001-015 G
!!!NIFC-rismSourceID: 1001234040
!!!NIFC-rismChildID: 1001234040
!!!NIFC-islandoraID: pl-lzu:5455
!!!URL-pdf-islandora: https://repozytorium.nifc.pl/islandora/object/pl-lzu%3A5455/datastream/PDF/view
!!!URL-scan: https://polish.musicsources.pl/pl/lokalizacje/galeria/druki-muzyczne/23228/22 @EN{Scan on Polish Music Sources Website} @PL{Skany w portalu Dziedzictwo Muzyki Polskiej w otwartym dostępie}
!!!IIIF:
!!!ONB-nifc:
!!!AIN: 1 piano 1 vox
!!!key: A
!!!OMD: Moderato cantabile.
**kern	**kern	**dynam	**kern	**text	**dynam
*part2	*part2	*part2	*part1	*part1	*part1
*staff3	*staff2	*staff2,3	*staff1	*staff1	*staff1
*I"[Piano]	*I"[Piano]	*	*I"[Voice]	*	*
*I'pf	*I'[f	*	*I'V	*	*
*Ipiano	*Ipiano	*	*Ivox	*	*
*ICklav	*ICklav	*	*ICvox	*	*
*IGacomp	*IGacomp	*	*IGsolo	*	*
*clefF4	*clefG2	*	*clefG2	*	*
*k[f#c#g#]	*k[f#c#g#]	*	*k[f#c#g#]	*	*
*A:	*A:	*	*A:	*	*
*M3/4	*M3/4	*	*M3/4	*	*
=1	=1	=1	=1	=1	=1
*clefG2	*	*	*	*	*
!	!LO:TX:a:i:t=Umiarkowanie i śpiewnie.	!	!LO:TX:t=P:problem:błędne metrum, powinno być 2/4	!	!
(16ff#\LL	(16fff#\LL	p	2r	.	.
16ee\	16eee\	.	.	.	.
16a\	16aa\	.	.	.	.
16cc#\JJ)	16ccc#\JJ)	.	.	.	.
4ee\	4eee\	.	.	.	.
=2	=2	=2	=2	=2	=2
(16b/LL	(16bb\LL	.	2r	.	.
16cc#/	16ccc#\	.	.	.	.
16b/	16bb\	.	.	.	.
16g#/JJ)	16gg#\JJ)	.	.	.	.
4e/	4ee\	.	.	.	.
=3	=3	=3	=3	=3	=3
(16a/LL	(16aa\LL	.	2r	.	.
16f#/	16ff#\	.	.	.	.
16e/	16ee\	.	.	.	.
16f#/JJ	16ff#\JJ	.	.	.	.
16e/LL	16ee\LL	.	.	.	.
16c#/	16cc#\	.	.	.	.
16A/	16a\	.	.	.	.
16c#/JJ	16cc#\JJ	.	.	.	.
=4	=4	=4	=4	=4	=4
*	*	*	*^	*	*
*clefF4	*	*	*	*	*	*
16B\LL	16b/LL	.	4r	4ryy	.	.
16c#\	16cc#/	.	.	.	.	.
16B\	16b/	.	.	.	.	.
16G#\JJ)	16g#/JJ)	.	.	.	.	.
8E;\	8e;/	.	8r;	8ryy	.	.
8r	8e/	.	8e/	8e\	Ko-	p
*	*	*	*v	*v	*	*
!!LO:LB:g=original
=5	=5	=5	=5	=5	=5
*^	*	*	*	*	*
(4c#/	2A\	(4a\ 4ee	.	4a/ 4ee	-can-	.
8B/L	.	8f#/L 8dd	.	8f#/ 8dd	-ki,	.
8d/J)	.	8g#/J) 8b	.	8g#/ 8b	ko-	.
=6	=6	=6	=6	=6	=6	=6
(4c#/	2A\	(4a\ 4ee	.	4a\ 4ee	-can-	.
8B/L	.	8f#/L 8dd	.	8f#,/ 8dd	-ki,	.
8d/J)	.	8g#/J) 8b	.	8g#/ 8b	Ga-	.
=7	=7	=7	=7	=7	=7	=7
*	*	*	*	*^	*	*
(4e/	2A\	(4a\ 4cc#	.	4a/ 4cc#	4ryy	-łąz-	.
8d/L	.	16f#/LL 16b	.	(<16b/LL	8f#\	-ka	.
.	.	16a/	.	16a/JJ)	.	.	.
8B/J)	.	16d/ 16f#	.	(<16f#/LL	8d\	wierz-	.
.	.	16g#/JJ	.	16g#/JJ)	.	.	.
*v	*v	*	*	*v	*v	*	*
=8	=8	=8	=8	=8	=8
4A\ 4c#	4e/ 4a	.	4c#/ 4a	-bo-	.
8A\ 8c#	8e/)	.	8c#/ 8e	-wa!	.
8r	8r	.	8r	.	.
!!LO:PB:g=original
=9	=9	=9	=9	=9	=9
2D\ 2A	(8d/L 8f#	.	8d/ 8f#	Roz-	.
.	8e/ 8g#	.	8e/ 8g#	-wi-	.
.	8f#/ 8a	.	8f#/ 8a	-nę-	.
.	8e/J) 8g#	.	8e/ 8g#	-ła	.
=10	=10	=10	=10	=10	=10
4F#\ 4A	4d/ 4a	<	4d/ 4a	nam	<
8D\L 8A	8f#/L 8b	[	8f#,/ 8b	się	[
8C#\J 8B	8f#/J 8cc#	.	8f#/ 8cc#	Ta	.
=11	=11	=11	=11	=11	=11
!	!	!LO:DY:rj	!	!	!LO:DY:rj
4.BB\ 4.F# 4.A	4d/ 4f# 4dd	f	4f#^>/ 4dd	pal-	f
.	(8f#/L 8cc#	.	8f#/ 8cc#	-ma	.
8BB\ 8F# 8A	8d/J) 8b	.	8d/ 8b	kwie-	.
=12	=12	=12	=12	=12	=12
*	*^	*	*^	*	*
2E\ 2G#	(<8cc#/L	4d\	>	(<8cc#/L	4d\	-tnio-	>
.	8b/J)	.	.	8b/J)	.	.	.
.	4d/ 4e	4ryy	]	4d,/ 4e	4ryy	-wa.	]
*	*v	*v	*	*	*	*	*
*	*	*	*v	*v	*	*
!!LO:LB:g=original
=13	=13	=13	=13	=13	=13
!	!	!	!	!	!LO:DY:rj
2AA/ 2E	(16c#/LL	p	8c#/ 8e	Roz-	p
.	16e/	.	.	.	.
.	16a/ 16ee	.	8a/ 8ee	-wi-	.
.	16e/JJ	.	.	.	.
.	16f#/LL 16dd	.	8f#/ 8dd	-nę-	.
.	16a/	.	.	.	.
.	16g#/ 16b	.	8g#/ 8b	-ła	.
.	16e/JJ)	.	.	.	.
=14	=14	=14	=14	=14	=14
2AA/ 2E	(16a/LL 16ee	.	4a/ 4ee	nam	.
.	16e/	.	.	.	.
.	16c#/	.	.	.	.
.	16e/JJ	.	.	.	.
.	16f#/LL 16dd	.	8f#/ 8dd	się	.
.	16a/	.	.	.	.
.	16g#/ 16b	.	8g#/ 8b	Nad	.
.	16d/JJ)	.	.	.	.
=15	=15	=15	=15	=15	=15
*^	*	*	*^	*	*
4AA/ 4E	4ryy	(16a/LL 16cc#	.	4a/ 4cc#	4ryy	by-	.
.	.	16c#/	.	.	.	.	.
.	.	16f#/	.	.	.	.	.
.	.	16e/JJ	.	.	.	.	.
(<8d/L	4A\	16f#/LL 16b	.	16b/LL	8f#\	-strą	.
.	.	16a/	.	16a/JJ	.	.	.
8B/J)	.	16d/ 16f#	.	16f#/LL	8d\	tą	.
.	.	16g#/JJ)	.	16g#/JJ	.	.	.
*v	*v	*	*	*v	*v	*	*
=16	=16	=16	=16	=16	=16
4A\ 4c#	(16e/LL 16a	.	4c#/ 4a	wo-	.
.	16f#/	.	.	.	.
.	16e/	.	.	.	.
.	16f#/JJ	.	.	.	.
(16c#\LL	8e/)	.	8c#/ 8e	-dą,	.
16B\	.	.	.	.	.
16A\	8r	.	8r	.	.
16E\JJ)	.	.	.	.	.
!!LO:LB:g=original
=17	=17	=17	=17	=17	=17
4D\	(16d/LL 16f#	.	8d/ 8f#	Za-	.
.	16c#/	.	.	.	.
.	16e/ 16g#	.	8e/ 8g#	-pach-	.
.	16d/JJ	.	.	.	.
(16D\LL	8f#/L 8a	.	8f#/ 8a	-nia-	.
16A\	.	.	.	.	.
16d\	8e/J) 8g#	.	8e/ 8g#	-ła	.
16A\JJ	.	.	.	.	.
=18	=18	=18	=18	=18	=18
16F#\LL	(4d/ 4a	<	4d/ 4a	wio-	<
16G#\	.	.	.	.	.
16F#\	.	.	.	.	.
16E\JJ	.	.	.	.	.
8D\L 8A	16f#/LL 16b	[	8f#/ 8b	-sna	[
.	16d/	.	.	.	.
8C#\J) 8A	16f#/ 16cc#	.	8f#/ 8cc#	Kwie-	.
.	16d/JJ)	.	.	.	.
=19	=19	=19	=19	=19	=19
!	!	!LO:DY:rj	!	!	!LO:DY:rj
2BB\ 2F# 2A	(16f#/LL 16dd	mf >	4f#/ 4dd	-tnio-	mf >
.	16d/	.	.	.	.
.	16f#/	.	.	.	.
.	16a/JJ	.	.	.	.
.	16f#/LL 16cc#	]	8f#,/ 8cc#	-wą	]
.	16e/	.	.	.	.
.	16d/ 16b	.	8d/ 8b	po-	.
.	16e/JJ)	.	.	.	.
=20	=20	=20	=20	=20	=20
*	*^	*	*^	*	*
!	!	!	!	!	!	!	!LO:DY:rj
(16BB\LL	4d/ 4f#	4ryy	.	(4f#/	2d\	-go-	p
16F#\	.	.	.	.	.	.	.
16A\	.	.	.	.	.	.	.
16F#\JJ	.	.	.	.	.	.	.
4E\) 4B	(<8g#/L	4d\	.	8g#/L	.	.	.
.	8b/J)	.	.	8b/J)	.	.	.
*	*v	*v	*	*	*	*	*
*	*	*	*v	*v	*	*
!!LO:PB:g=original
=21	=21	=21	=21	=21	=21
*ped	*	*	*	*	*
4AA\ 4E 4A	(4c#/ 4a	.	[2c#/ [2a	-dą!	.
4r	16ff#\LL	pp	.	.	.
.	16ee\	.	.	.	.
.	16cc#\	.	.	.	.
.	16b\JJ	.	.	.	.
=22	=22	=22	=22	=22	=22
2r	16a/LL	.	4c#/] 4a]	.	.
.	16f#/	.	.	.	.
.	16e/	.	.	.	.
.	16g#/JJ	.	.	.	.
.	16a\LL	.	4r	.	.
.	16cc#\	.	.	.	.
.	16ff#\	.	.	.	.
.	16ee\JJ	.	.	.	.
=23	=23	=23	=23	=23	=23
4r	8ccc#\)	.	2r	.	.
.	8r	.	.	.	.
4A\ 4e	4cc#\ 4aa	.	.	.	.
=24	=24	=24	=24	=24	=24
*Xped	*	*	*	*	*
2AA;/ 2E	2c#;/ 2a	.	2r;	.	.
==	==	==	==	==	==
*-	*-	*-	*-	*-	*-
!!!system-decoration: p1{p2}
!!!RDF**kern: > = above
!!!RDF**kern: < = below
!!!ENC: Andrzej Gręziak
!!!END: 2025-03-04
!!!ENC: Marta Lawrence
!!!END: 2025-03-20
